X: 32353
T: Pink Frog
R: reel
M: 4/4
K: Aminor
|:EAAB cBAF-|FABc dege|a3b aged|cABG AGED|
EAAB cBAF-|FABc dege|a3b aged|1 BcBG AGED:|2 BcBG A2Ag||
|:aAAg AAaA|AbAA aA^fa|~g3a gedB|c2Bc AGEG|
[1 aAAg AAaA|AbAA aA^fa|~g3a gedB|c2Bc ABce:|
[2 EAAB cBAF-|FABc dege|a3b aged|BcBG A4||

